src/assets/epta_payoff_btn.svg

<svg fill="none" height="216" viewBox="0 0 173 216" width="173" xmlns="http://www.w3.org/2000/svg"><path d="m116.446 37.3027-31.0962-31.09659" stroke="#000" stroke-linecap="round" stroke-width="8.77718"/><path d="m50.2407 37.6793 33.2909-33.29088" stroke="#000" stroke-linecap="round" stroke-width="8.77718"/><g fill="#4e575d"><path d="m38.0645 167.121-20.4994-23.322c-3.4165-3.877-7.295-8.536-10.18171-12.088l-.12906.061c.12906 3.878.12906 7.749.12906 11.566v23.124h-4.40146v-41.909h3.09053l19.44654 22.201c2.8256 3.219 6.7041 7.749 9.4618 11.233l.129-.068c-.129-3.742-.129-7.491-.129-11.036v-22.337h4.4014v42.568h-1.3177z"/><path d="m48.4434 166.47v-41.916h21.8782v3.81h-17.4768v15.11h14.3251v3.81h-14.3251v15.376h19.7794v3.81z"/><path d="m91.6777 167.19h-1.4468l-16.7568-42.636h4.6664l8.8708 22.595c1.3109 3.416 2.8868 7.687 4.0754 11.362h.1291c1.1818-3.681 2.7577-7.817 4.1365-11.362l8.8707-22.595h4.205l-16.7571 42.636z"/><path d="m113.358 166.47v-41.916h21.879v3.81h-17.477v15.11h14.325v3.81h-14.325v15.376h19.779v3.81z"/><path d="m153.372 128.432h-6.439v15.11h6.568c4.53 0 8.409-2.757 8.409-7.552 0-4.794-3.94-7.552-8.538-7.552m14.06 38.032-13.931-19.186h-6.568v19.186h-4.402v-41.909h11.568c6.371 0 12.287 4.203 12.287 11.362 0 5.453-3.484 9.392-8.212 10.709l14.719 19.838h-5.454z"/><path d="m13.6657 215.418c-4.97882 0-9.00669-1.569-11.39081-3.274l-.61132-4.978c3.13808 2.526 7.23387 4.299 12.21263 4.299 5.3185 0 9.1426-3.138 9.1426-7.844 0-4.707-2.6626-7.097-8.6671-9.277-7.6414-2.73-11.25494-6.411-11.25494-12.347 0-5.46 4.02788-10.846 12.68814-10.846 3.9532 0 7.3697 1.298 9.1425 2.459l-1.0256 3.885c-1.637-1.23-4.9788-2.527-8.2527-2.527-5.3185 0-8.18485 3.341-8.18485 6.751 0 3.681 2.45884 6.071 7.84515 8.048 7.6414 2.798 12.2806 6.275 12.2806 13.508 0 7.232-5.3863 12.143-13.9175 12.143"/><path d="m29.6279 171.557v3.952h14.9432v39.567h4.5713v-39.567h15.0111v-3.952z"/><path d="m87.283 174.898c-9.5501 0-18.1492 7.301-18.1492 18.486s8.5991 18.486 18.1492 18.486 18.149-7.301 18.149-18.486-8.6668-18.486-18.149-18.486zm0 40.932c-12.0089 0-22.7884-9.074-22.7884-22.582s10.7795-22.445 22.7884-22.445 22.788 9.005 22.788 22.445-10.7791 22.582-22.788 22.582z"/><path d="m128.22 175.577h-7.37v15.688h7.506c4.707 0 8.735-2.866 8.735-7.844s-4.096-7.844-8.871-7.844zm.883 19.58h-8.253v19.919h-4.571v-43.519h12.688c6.616 0 12.756 4.366 12.756 11.803s-6.072 11.803-12.62 11.803"/><path d="m156.054 215.418c-4.979 0-9.007-1.569-11.391-3.274l-.611-4.978c3.138 2.526 7.234 4.299 12.212 4.299 5.326 0 9.143-3.138 9.143-7.844 0-4.707-2.663-7.097-8.667-9.277-7.642-2.73-11.255-6.411-11.255-12.347 0-5.46 4.028-10.846 12.688-10.846 3.953 0 7.37 1.298 9.143 2.459l-1.026 3.885c-1.637-1.23-4.979-2.527-8.253-2.527-5.318 0-8.185 3.341-8.185 6.751 0 3.681 2.459 6.071 7.846 8.048 7.641 2.798 12.28 6.275 12.28 13.508 0 7.232-5.386 12.143-13.917 12.143"/><path d="m109.65 76.8857c-10.902 0-20.0037 7.8033-22.0346 18.1194-2.0377-10.3161-11.1395-18.1194-22.0413-18.1194-12.3892 0-22.4691 10.0784-22.4691 22.4659 0 12.3874 10.0799 22.4654 22.4691 22.4654 10.9018 0 20.0036-7.803 22.0413-18.119 2.0309 10.309 11.1394 18.119 22.0416 18.119 12.389 0 22.469-10.078 22.469-22.4654 0-12.3875-10.087-22.4659-22.476-22.4659zm-44.0759 40.7953c-10.1138 0-18.3394-8.224-18.3394-18.3294 0-10.1056 8.2256-18.3367 18.3394-18.3367 10.1139 0 18.3394 8.2243 18.3394 18.3367s-8.2255 18.3294-18.3394 18.3294zm44.0759 0c-10.114 0-18.3396-8.224-18.3396-18.3294 0-10.1056 8.2256-18.3367 18.3396-18.3367s18.339 8.2243 18.339 18.3367-8.225 18.3294-18.339 18.3294z"/><path d="m41.447 96.8533h-11.024v4.1357h6.9011l.0135 9.094c-3.4505 4.774-8.9659 7.606-14.8685 7.606-10.1138 0-18.33934-8.224-18.33934-18.3296s8.23234-18.3367 18.33934-18.3367c5.8143 0 11.1531 2.669 14.658 7.3143l3.3011-2.4857c-4.286-5.6979-10.8339-8.9646-17.9591-8.9646-12.3892 0-22.4691 10.0784-22.4691 22.4659 0 12.3874 10.0799 22.4654 22.4691 22.4654 7.4784 0 14.4406-3.701 18.6315-9.901l.2785-.408.0951-.774-.0204-13.8817z"/><path d="m147.489 76.8857c-3.389 0-6.677.7607-9.652 2.1733-1.46.6927-2.846 1.5484-4.129 2.5467v35.4913c1.283.999 2.669 1.848 4.129 2.547 2.975 1.42 6.263 2.173 9.652 2.173 12.389 0 22.469-10.078 22.469-22.4654 0-12.3875-10.08-22.4659-22.469-22.4659zm0 40.8023c-3.464 0-6.792-.971-9.652-2.75v-31.1658c2.867-1.7793 6.195-2.7505 9.652-2.7505 10.114 0 18.34 8.2243 18.34 18.3299 0 10.1054-8.226 18.3364-18.34 18.3364z"/></g></svg>

<svg width="173" height="216" viewBox="0 0 173 216" fill="none" xmlns="http://www.w3.org/2000/svg">
<line x1="116.446" y1="37.3027" x2="85.3498" y2="6.20611" stroke="black" stroke-width="8.77718" stroke-linecap="round"/>
<line x1="50.2407" y1="37.6793" x2="83.5316" y2="4.38842" stroke="black" stroke-width="8.77718" stroke-linecap="round"/>
<path d="M38.0645 167.121L17.5651 143.799C14.1486 139.922 10.2701 135.263 7.38339 131.711L7.25433 131.772C7.38339 135.65 7.38339 139.521 7.38339 143.338V166.462H2.98193V124.553H6.07246L25.519 146.754C28.3446 149.973 32.2231 154.503 34.9808 157.987L35.1098 157.919C34.9808 154.177 34.9808 150.428 34.9808 146.883V124.546H39.3822V167.114H38.0645V167.121Z" fill="#4E575D"/>
<path d="M48.4434 166.47V124.554H70.3216V128.364H52.8448V143.474H67.1699V147.284H52.8448V162.66H72.6242V166.47H48.4434Z" fill="#4E575D"/>
<path d="M91.6777 167.19H90.2309L73.4741 124.554H78.1405L87.0113 147.149C88.3222 150.565 89.8981 154.836 91.0867 158.511H91.2158C92.3976 154.83 93.9735 150.694 95.3523 147.149L104.223 124.554H108.428L91.6709 167.19H91.6777Z" fill="#4E575D"/>
<path d="M113.358 166.47V124.554H135.237V128.364H117.76V143.474H132.085V147.284H117.76V162.66H137.539V166.47H113.358Z" fill="#4E575D"/>
<path d="M153.372 128.432H146.933V143.542H153.501C158.031 143.542 161.91 140.785 161.91 135.99C161.91 131.196 157.97 128.438 153.372 128.438M167.432 166.47L153.501 147.284H146.933V166.47H142.531V124.561H154.099C160.47 124.561 166.386 128.764 166.386 135.923C166.386 141.376 162.902 145.315 158.174 146.632L172.893 166.47H167.439H167.432Z" fill="#4E575D"/>
<path d="M13.6657 215.418C8.68688 215.418 4.65901 213.849 2.27489 212.144L1.66357 207.166C4.80165 209.692 8.89744 211.465 13.8762 211.465C19.1947 211.465 23.0188 208.327 23.0188 203.621C23.0188 198.914 20.3562 196.524 14.3517 194.344C6.7103 191.614 3.09676 187.933 3.09676 181.997C3.09676 176.537 7.12464 171.151 15.7849 171.151C19.7381 171.151 23.1546 172.449 24.9274 173.61L23.9018 177.495C22.2648 176.265 18.923 174.968 15.6491 174.968C10.3306 174.968 7.46425 178.309 7.46425 181.719C7.46425 185.4 9.92309 187.79 15.3094 189.767C22.9508 192.565 27.59 196.042 27.59 203.275C27.59 210.507 22.2037 215.418 13.6725 215.418" fill="#4E575D"/>
<path d="M29.6279 171.557V175.509H44.5711V215.076H49.1424V175.509H64.1535V171.557H29.6279Z" fill="#4E575D"/>
<path d="M87.283 174.898C77.7329 174.898 69.1338 182.199 69.1338 193.384C69.1338 204.569 77.7329 211.87 87.283 211.87C96.8331 211.87 105.432 204.569 105.432 193.384C105.432 182.199 96.7652 174.898 87.283 174.898ZM87.283 215.83C75.2741 215.83 64.4946 206.756 64.4946 193.248C64.4946 179.74 75.2741 170.803 87.283 170.803C99.2919 170.803 110.071 179.808 110.071 193.248C110.071 206.688 99.2919 215.83 87.283 215.83Z" fill="#4E575D"/>
<path d="M128.22 175.577H120.85V191.265H128.356C133.063 191.265 137.091 188.399 137.091 183.421C137.091 178.443 132.995 175.577 128.22 175.577ZM129.103 195.157H120.85V215.076H116.279V171.557H128.967C135.583 171.557 141.723 175.923 141.723 183.36C141.723 190.797 135.651 195.163 129.103 195.163" fill="#4E575D"/>
<path d="M156.054 215.418C151.075 215.418 147.047 213.849 144.663 212.144L144.052 207.166C147.19 209.692 151.286 211.465 156.264 211.465C161.59 211.465 165.407 208.327 165.407 203.621C165.407 198.914 162.744 196.524 156.74 194.344C149.098 191.614 145.485 187.933 145.485 181.997C145.485 176.537 149.513 171.151 158.173 171.151C162.126 171.151 165.543 172.449 167.316 173.61L166.29 177.495C164.653 176.265 161.311 174.968 158.037 174.968C152.719 174.968 149.852 178.309 149.852 181.719C149.852 185.4 152.311 187.79 157.698 189.767C165.339 192.565 169.978 196.042 169.978 203.275C169.978 210.507 164.592 215.418 156.061 215.418" fill="#4E575D"/>
<path d="M109.65 76.8857C98.748 76.8857 89.6463 84.689 87.6154 95.0051C85.5777 84.689 76.4759 76.8857 65.5741 76.8857C53.1849 76.8857 43.105 86.9641 43.105 99.3516C43.105 111.739 53.1849 121.817 65.5741 121.817C76.4759 121.817 85.5777 114.014 87.6154 103.698C89.6463 114.007 98.7548 121.817 109.657 121.817C122.046 121.817 132.126 111.739 132.126 99.3516C132.126 86.9641 122.039 76.8857 109.65 76.8857ZM65.5741 117.681C55.4603 117.681 47.2347 109.457 47.2347 99.3516C47.2347 89.246 55.4603 81.0149 65.5741 81.0149C75.688 81.0149 83.9135 89.2392 83.9135 99.3516C83.9135 109.464 75.688 117.681 65.5741 117.681ZM109.65 117.681C99.536 117.681 91.3104 109.457 91.3104 99.3516C91.3104 89.246 99.536 81.0149 109.65 81.0149C119.764 81.0149 127.989 89.2392 127.989 99.3516C127.989 109.464 119.764 117.681 109.65 117.681Z" fill="#4E575D"/>
<path d="M41.447 96.8533H30.423V100.989H37.3241L37.3376 110.083C33.8871 114.857 28.3717 117.689 22.4691 117.689C12.3553 117.689 4.12976 109.465 4.12976 99.3594C4.12976 89.2538 12.3621 81.0227 22.4691 81.0227C28.2834 81.0227 33.6222 83.6917 37.1271 88.337L40.4282 85.8513C36.1422 80.1534 29.5943 76.8867 22.4691 76.8867C10.0799 76.8867 0 86.9651 0 99.3526C0 111.74 10.0799 121.818 22.4691 121.818C29.9475 121.818 36.9097 118.117 41.1006 111.917L41.3791 111.509L41.4742 110.735L41.4538 96.8533H41.447Z" fill="#4E575D"/>
<path d="M147.489 76.8857C144.1 76.8857 140.812 77.6464 137.837 79.059C136.377 79.7517 134.991 80.6074 133.708 81.6057V117.097C134.991 118.096 136.377 118.945 137.837 119.644C140.812 121.064 144.1 121.817 147.489 121.817C159.878 121.817 169.958 111.739 169.958 99.3516C169.958 86.9641 159.878 76.8857 147.489 76.8857ZM147.489 117.688C144.025 117.688 140.697 116.717 137.837 114.938V83.7722C140.704 81.9929 144.032 81.0217 147.489 81.0217C157.603 81.0217 165.829 89.246 165.829 99.3516C165.829 109.457 157.603 117.688 147.489 117.688Z" fill="#4E575D"/>
</svg>
